X:21022 
T:CAPTAIN ROCK (reel)
T:The Old Bush, Long Hills of Mourne
B:DMI.0781
Z:Nordberg/Black
N:Source shows no naturals but this is always 
played as a modal tune today. 
N:Single in DMI
R:reel
%Q:1/4=180
M:C|
L:1/8
K:G
"D modal"
G|AGAB cAGB|Adde fdec|AGAB cAGc|dfed cAGB|
ADED cAGB|Adde f2fg|afge fdec|dfed cAA :|
f|g2ge c3e|g2ge d3e|f2fd e2ec|dfed cAAf|
g2ge a2af|gfge abag|f2fd efec|dfed cAA :|

%%%

